flaticon/science/atoms-6.svg

<svg xmlns="http://www.w3.org/2000/svg" width="32" height="32" viewBox="0 0 24 24">
    <path d="M 12.289062 9.039062 C 10.648438 9.039062 9.328125 10.359375 9.328125 12 C 9.328125 13.640625 10.648438 14.960938 12.289062 14.960938 C 13.929688 14.960938 15.25 13.640625 15.25 12 C 15.25 10.359375 13.929688 9.039062 12.289062 9.039062 Z M 12.289062 14.160156 C 11.089844 14.160156 10.128906 13.199219 10.128906 12 C 10.128906 10.800781 11.089844 9.839844 12.289062 9.839844 C 13.488281 9.839844 14.449219 10.800781 14.449219 12 C 14.449219 13.199219 13.488281 14.160156 12.289062 14.160156 Z M 12.289062 14.160156"/>
    <path d="M 22.53125 7.28125 C 22.691406 6.480469 22.53125 5.761719 22.089844 5.199219 C 21.703125 4.636719 21.066406 4.289062 20.210938 4.1875 C 20.167969 3.929688 20.070312 3.691406 19.929688 3.480469 C 19.691406 3.121094 19.289062 2.878906 18.851562 2.800781 C 18.371094 2.71875 17.929688 2.839844 17.570312 3.078125 C 17.085938 3.4375 16.847656 3.984375 16.867188 4.53125 C 16.609375 4.605469 16.347656 4.6875 16.082031 4.777344 C 15.226562 1.859375 13.855469 0 12.289062 0 C 10.753906 0 9.402344 1.839844 8.550781 4.730469 C 5.839844 3.785156 3.511719 3.714844 2.488281 5.121094 C 2.101562 5.648438 1.996094 6.359375 2.191406 7.230469 C 2.011719 7.347656 1.855469 7.496094 1.730469 7.679688 C 1.167969 8.441406 1.371094 9.519531 2.128906 10.039062 C 2.410156 10.238281 2.730469 10.359375 3.089844 10.359375 C 3.167969 10.359375 3.289062 10.359375 3.410156 10.320312 C 3.507812 10.300781 3.605469 10.273438 3.699219 10.242188 C 4.117188 10.816406 4.601562 11.40625 5.144531 11.996094 C 3.464844 13.800781 2.363281 15.585938 2.128906 17 C 2.011719 17.761719 2.128906 18.398438 2.449219 18.878906 C 2.96875 19.601562 3.890625 20 5.210938 20 C 6.144531 20 7.265625 19.789062 8.558594 19.339844 C 9.40625 22.191406 10.746094 24 12.289062 24 C 12.996094 24 13.644531 23.65625 14.226562 23.019531 C 14.429688 23.109375 14.65625 23.160156 14.890625 23.160156 C 15.808594 23.160156 16.570312 22.398438 16.570312 21.480469 C 16.570312 20.894531 16.261719 20.378906 15.804688 20.074219 C 15.898438 19.804688 15.988281 19.527344 16.070312 19.238281 C 17.492188 19.730469 18.800781 20 19.851562 20 C 20.167969 20 20.488281 19.960938 20.769531 19.878906 C 21.449219 19.761719 21.890625 19.441406 22.167969 19 C 23.214844 17.238281 22.273438 14.761719 19.632812 12.015625 C 21.300781 10.277344 22.324219 8.632812 22.53125 7.28125 Z M 18.050781 3.71875 C 18.210938 3.601562 18.371094 3.558594 18.570312 3.558594 C 18.609375 3.558594 18.691406 3.601562 18.730469 3.558594 C 18.96875 3.601562 19.167969 3.71875 19.289062 3.921875 C 19.375 4.027344 19.425781 4.148438 19.449219 4.269531 L 19.449219 4.519531 C 19.449219 4.554688 19.449219 4.589844 19.445312 4.625 C 19.398438 4.820312 19.28125 5.046875 19.089844 5.160156 C 18.691406 5.441406 18.128906 5.359375 17.851562 4.960938 C 17.570312 4.558594 17.648438 4 18.050781 3.71875 Z M 17.074219 5.285156 C 17.105469 5.335938 17.136719 5.390625 17.167969 5.441406 C 17.234375 5.527344 17.308594 5.609375 17.386719 5.683594 C 17.386719 5.683594 17.386719 5.683594 17.390625 5.6875 C 17.40625 5.699219 17.421875 5.714844 17.4375 5.726562 C 17.765625 6.015625 18.167969 6.160156 18.570312 6.160156 C 18.890625 6.160156 19.25 6.039062 19.53125 5.839844 C 19.621094 5.785156 19.699219 5.714844 19.769531 5.636719 C 19.960938 5.441406 20.097656 5.191406 20.171875 4.921875 C 20.730469 5 21.171875 5.242188 21.449219 5.601562 C 21.769531 6 21.851562 6.480469 21.769531 7.078125 C 21.589844 8.28125 20.609375 9.808594 19.042969 11.425781 C 18.414062 10.820312 17.703125 10.203125 16.917969 9.578125 C 16.800781 8.109375 16.585938 6.742188 16.285156 5.527344 C 16.550781 5.4375 16.816406 5.355469 17.074219 5.285156 Z M 14.53125 15.199219 C 13.785156 15.722656 13.050781 16.199219 12.335938 16.625 C 11.597656 16.203125 10.84375 15.726562 10.089844 15.199219 C 9.527344 14.804688 8.984375 14.398438 8.472656 13.984375 C 8.429688 13.347656 8.410156 12.683594 8.410156 12 C 8.410156 11.316406 8.429688 10.65625 8.472656 10.019531 C 8.984375 9.605469 9.527344 9.195312 10.089844 8.800781 C 10.820312 8.28125 11.558594 7.804688 12.296875 7.375 C 13.03125 7.800781 13.78125 8.277344 14.53125 8.800781 C 15.085938 9.191406 15.617188 9.582031 16.117188 9.972656 C 16.15625 10.621094 16.175781 11.296875 16.167969 12 C 16.167969 12.6875 16.148438 13.371094 16.101562 14.039062 C 15.601562 14.429688 15.078125 14.816406 14.53125 15.199219 Z M 16.003906 15.183594 C 15.890625 16.230469 15.722656 17.234375 15.503906 18.15625 C 14.765625 17.863281 13.984375 17.507812 13.183594 17.085938 C 13.746094 16.746094 14.328125 16.371094 14.929688 15.960938 C 15.296875 15.703125 15.65625 15.441406 16.003906 15.183594 Z M 11.519531 17.089844 C 10.671875 17.558594 9.859375 17.953125 9.089844 18.269531 C 8.859375 17.320312 8.679688 16.253906 8.5625 15.085938 C 8.914062 15.359375 9.277344 15.621094 9.648438 15.878906 C 10.261719 16.3125 10.886719 16.71875 11.519531 17.089844 Z M 7.636719 13.28125 C 7.148438 12.855469 6.6875 12.425781 6.261719 11.992188 C 6.6875 11.566406 7.148438 11.136719 7.636719 10.714844 C 7.617188 11.136719 7.609375 11.566406 7.609375 12 C 7.609375 12.433594 7.617188 12.859375 7.636719 13.28125 Z M 8.558594 8.925781 C 8.675781 7.773438 8.851562 6.71875 9.078125 5.777344 C 9.855469 6.089844 10.671875 6.480469 11.515625 6.933594 C 10.878906 7.3125 10.242188 7.722656 9.609375 8.160156 C 9.25 8.410156 8.902344 8.664062 8.558594 8.925781 Z M 13.109375 6.921875 C 13.929688 6.484375 14.738281 6.109375 15.523438 5.804688 C 15.746094 6.730469 15.917969 7.769531 16.03125 8.898438 C 15.703125 8.652344 15.363281 8.40625 15.011719 8.160156 C 14.390625 7.722656 13.753906 7.308594 13.109375 6.921875 Z M 16.980469 10.667969 C 17.519531 11.117188 18.015625 11.5625 18.46875 12 C 18.011719 12.4375 17.515625 12.886719 16.980469 13.332031 C 17 12.890625 17.011719 12.449219 17.011719 12 C 17.011719 11.550781 17 11.105469 16.980469 10.667969 Z M 12.289062 0.800781 C 13.402344 0.800781 14.570312 2.378906 15.328125 5.050781 C 14.355469 5.429688 13.347656 5.90625 12.328125 6.46875 C 11.300781 5.894531 10.273438 5.398438 9.28125 5.003906 C 10.039062 2.363281 11.183594 0.800781 12.289062 0.800781 Z M 2.570312 9.398438 C 2.167969 9.121094 2.089844 8.558594 2.371094 8.160156 C 2.425781 8.074219 2.5 8.003906 2.582031 7.949219 L 2.808594 7.878906 C 3.089844 7.800781 3.371094 7.839844 3.609375 8 C 3.804688 8.117188 3.921875 8.308594 3.964844 8.539062 C 4 8.761719 3.949219 9 3.808594 9.199219 C 3.691406 9.398438 3.488281 9.519531 3.25 9.558594 C 3.007812 9.601562 2.769531 9.519531 2.570312 9.398438 Z M 4.488281 9.679688 C 4.539062 9.597656 4.582031 9.515625 4.621094 9.433594 C 5.011719 8.695312 4.78125 7.753906 4.089844 7.28125 C 3.75 7.027344 3.34375 6.929688 2.953125 6.96875 C 2.816406 6.402344 2.898438 5.945312 3.128906 5.601562 C 3.867188 4.566406 5.832031 4.601562 8.34375 5.496094 C 8.035156 6.722656 7.816406 8.109375 7.699219 9.605469 C 6.980469 10.195312 6.3125 10.800781 5.703125 11.410156 C 5.207031 10.871094 4.757812 10.328125 4.371094 9.800781 C 4.410156 9.761719 4.449219 9.71875 4.488281 9.679688 Z M 3.128906 18.398438 C 2.929688 18.078125 2.851562 17.640625 2.929688 17.121094 C 3.132812 15.851562 4.144531 14.238281 5.695312 12.574219 C 6.304688 13.195312 6.976562 13.808594 7.699219 14.40625 C 7.816406 15.917969 8.035156 17.316406 8.34375 18.558594 C 5.84375 19.457031 3.914062 19.460938 3.128906 18.398438 Z M 14.890625 22.320312 C 14.417969 22.320312 14.023438 21.929688 14.011719 21.460938 C 14.023438 20.988281 14.417969 20.601562 14.890625 20.601562 C 15.011719 20.601562 15.089844 20.601562 15.210938 20.640625 L 15.324219 20.679688 C 15.589844 20.832031 15.769531 21.117188 15.769531 21.441406 C 15.769531 21.921875 15.371094 22.320312 14.890625 22.320312 Z M 15.050781 19.761719 C 14.050781 19.640625 13.167969 20.441406 13.167969 21.441406 C 13.167969 21.839844 13.328125 22.238281 13.570312 22.519531 C 13.128906 22.960938 12.730469 23.199219 12.289062 23.199219 C 11.195312 23.199219 10.058594 21.664062 9.300781 19.0625 C 10.242188 18.6875 11.261719 18.195312 12.359375 17.570312 C 13.351562 18.117188 14.34375 18.582031 15.300781 18.953125 C 15.222656 19.230469 15.136719 19.5 15.050781 19.761719 Z M 21.53125 18.601562 C 21.371094 18.839844 21.089844 19.039062 20.648438 19.121094 C 19.722656 19.320312 18.164062 19.105469 16.28125 18.449219 C 16.578125 17.230469 16.792969 15.890625 16.910156 14.480469 C 17.699219 13.847656 18.421875 13.214844 19.0625 12.589844 C 21.390625 15.019531 22.328125 17.191406 21.53125 18.601562 Z M 21.53125 18.601562"/>
</svg>

<svg xmlns="http://www.w3.org/2000/svg" width="32" height="32" viewBox="0 0 24 24">
    <path d="M12.29 9.04c-1.642 0-2.962 1.32-2.962 2.96s1.32 2.96 2.961 2.96c1.64 0 2.961-1.32 2.961-2.96s-1.32-2.96-2.96-2.96zm0 5.12c-1.2 0-2.161-.96-2.161-2.16 0-1.2.96-2.16 2.16-2.16 1.2 0 2.16.96 2.16 2.16 0 1.2-.96 2.16-2.16 2.16zm0 0"/>
    <path d="M22.531 7.281c.16-.8 0-1.52-.441-2.082-.387-.562-1.024-.91-1.88-1.011a1.806 1.806 0 0 0-.28-.708c-.239-.359-.64-.601-1.078-.68-.48-.081-.922.04-1.282.278-.484.36-.722.906-.703 1.453-.258.074-.52.157-.785.246C15.227 1.86 13.855 0 12.289 0c-1.535 0-2.887 1.84-3.738 4.73-2.711-.945-5.04-1.015-6.063.391-.386.527-.492 1.238-.297 2.11-.18.117-.336.265-.46.449-.563.761-.36 1.84.398 2.36.281.198.601.32.96.32.079 0 .2 0 .321-.04.098-.02.195-.047.29-.078.417.574.902 1.164 1.445 1.754-1.68 1.805-2.782 3.59-3.016 5.004-.117.762 0 1.398.32 1.879C2.97 19.602 3.891 20 5.211 20c.934 0 2.055-.21 3.348-.66.847 2.851 2.187 4.66 3.73 4.66.707 0 1.356-.344 1.938-.98.203.09.43.14.664.14.918 0 1.68-.762 1.68-1.68 0-.585-.31-1.101-.766-1.406.093-.27.183-.547.265-.836 1.422.492 2.73.762 3.782.762.316 0 .636-.04.918-.121.68-.117 1.12-.438 1.398-.879 1.047-1.762.105-4.238-2.535-6.984 1.668-1.739 2.691-3.383 2.898-4.735zm-4.48-3.562a.82.82 0 0 1 .52-.16c.038 0 .12.043.16 0 .238.043.437.16.558.363a.783.783 0 0 1 .16.348v.25c0 .035 0 .07-.004.105-.047.195-.164.422-.355.535-.399.281-.961.2-1.238-.2-.282-.401-.204-.96.199-1.241zm-.977 1.566l.094.156c.066.086.14.168.219.243l.004.003c.015.012.03.028.047.04.328.289.73.433 1.132.433.32 0 .68-.12.961-.32.09-.055.168-.125.239-.203.19-.196.328-.446.402-.715.558.078 1 .32 1.277.68.32.398.403.878.32 1.476-.18 1.203-1.16 2.73-2.726 4.348a30.09 30.09 0 0 0-2.125-1.848 25.4 25.4 0 0 0-.633-4.05c.266-.09.531-.173.79-.243zM14.531 15.2a35.2 35.2 0 0 1-2.195 1.426 29.576 29.576 0 0 1-3.863-2.64C8.43 13.347 8.41 12.683 8.41 12c0-.684.02-1.344.063-1.98A29.617 29.617 0 0 1 10.09 8.8c.73-.519 1.469-.995 2.207-1.425.734.426 1.484.902 2.234 1.426.555.39 1.086.781 1.586 1.172.04.648.059 1.324.051 2.027 0 .688-.02 1.371-.066 2.04-.5.39-1.024.776-1.57 1.16zm1.473-.015a24.288 24.288 0 0 1-.5 2.972 23.942 23.942 0 0 1-2.32-1.07 37.88 37.88 0 0 0 1.746-1.125c.367-.258.726-.52 1.074-.777zM11.52 17.09c-.848.469-1.66.863-2.43 1.18a23.51 23.51 0 0 1-.527-3.184c.351.273.714.535 1.085.793.614.434 1.239.84 1.872 1.21zM7.637 13.28c-.489-.426-.95-.855-1.375-1.289.426-.426.886-.855 1.375-1.277-.02.422-.028.851-.028 1.285 0 .434.008.86.028 1.281zm.922-4.355c.117-1.153.293-2.207.52-3.149.776.313 1.593.703 2.437 1.157a30.178 30.178 0 0 0-2.957 1.992zm4.55-2.004c.82-.438 1.63-.813 2.414-1.117.223.925.395 1.965.508 3.093a38.42 38.42 0 0 0-1.02-.738 31.041 31.041 0 0 0-1.902-1.238zm3.871 3.746c.54.45 1.036.895 1.489 1.332-.457.438-.953.887-1.489 1.332.02-.441.032-.883.032-1.332 0-.45-.012-.895-.032-1.332zM12.29.801c1.112 0 2.28 1.578 3.038 4.25-.973.379-1.98.855-3 1.418a25.98 25.98 0 0 0-3.047-1.465C10.04 2.364 11.184.8 12.29.8zM2.57 9.398c-.402-.277-.48-.84-.199-1.238a.724.724 0 0 1 .211-.21l.227-.071a.949.949 0 0 1 .8.121.769.769 0 0 1 .356.54.902.902 0 0 1-.156.66c-.118.198-.32.32-.559.359-.242.043-.48-.04-.68-.16zm1.918.282a2.53 2.53 0 0 0 .133-.246A1.68 1.68 0 0 0 4.09 7.28a1.62 1.62 0 0 0-1.137-.312c-.137-.567-.055-1.024.176-1.367.738-1.036 2.703-1 5.215-.106-.309 1.227-.528 2.613-.645 4.11a27.486 27.486 0 0 0-1.996 1.804A18.945 18.945 0 0 1 4.371 9.8c.04-.038.078-.081.117-.12zm-1.36 8.718c-.198-.32-.276-.757-.198-1.277.203-1.27 1.215-2.883 2.765-4.547.61.621 1.282 1.235 2.004 1.832.117 1.512.336 2.91.645 4.153-2.5.898-4.43.902-5.215-.16zm11.763 3.922a.89.89 0 0 1-.88-.86.887.887 0 0 1 .88-.858c.12 0 .199 0 .32.039l.113.039a.88.88 0 0 1 .446.761c0 .48-.399.88-.88.88zm.16-2.558c-1-.121-1.883.68-1.883 1.68 0 .398.16.796.402 1.078-.441.44-.84.68-1.28.68-1.095 0-2.231-1.536-2.99-4.137.942-.375 1.962-.868 3.06-1.493a24.445 24.445 0 0 0 2.94 1.383c-.077.277-.163.547-.25.809zm6.48-1.16c-.16.238-.441.437-.883.52-.925.198-2.484-.017-4.367-.673.297-1.219.512-2.558.63-3.969a29.696 29.696 0 0 0 2.151-1.89c2.329 2.43 3.266 4.601 2.47 6.012zm0 0"/>
</svg>
